dist/svgs/crypto-icons/icons/banx.svg

<?xml version="1.0" encoding="UTF-8" standalone="yes"?>
<svg xmlns="http://www.w3.org/2000/svg" xmlns:xlink="http://www.w3.org/1999/xlink" width="512px" height="512px" viewBox="0 0 384 384" version="1.1">
  <g id="surface1">
    <path style=" stroke:none;fill-rule:nonzero;fill:rgb(0%,0%,0%);fill-opacity:1;" d="M 314.003906 244.078125 L 334.011719 211.46875 L 352.371094 244.078125 L 383.34375 244.078125 L 348.808594 192.6875 L 380.464844 146.238281 L 351.410156 146.238281 L 334.011719 176.65625 L 317.566406 146.238281 L 287.558594 146.238281 L 319.484375 192.6875 L 284.679688 244.078125 Z M 149.269531 146.238281 L 123.367188 146.238281 L 86.785156 244.078125 L 112.957031 244.078125 L 119.125 226.539062 L 153.246094 226.539062 L 159.273438 244.078125 L 185.859375 244.078125 Z M 125.015625 207.625 L 136.117188 173.371094 L 136.394531 173.371094 L 147.210938 207.625 Z M 68.523438 190.496094 C 76.195312 186.660156 81.402344 179.539062 81.402344 170.765625 C 81.402344 150.347656 62.90625 145.964844 46.050781 146.238281 L 0.28125 146.238281 L 0.28125 244.078125 L 47.28125 244.078125 C 68.25 244.078125 85.375 236.949219 85.375 213.65625 C 85.375 202.558594 78.9375 193.515625 68.523438 190.496094 Z M 25.769531 165.972656 L 45.5 165.972656 C 50.847656 165.972656 55.917969 168.296875 55.917969 175.425781 C 55.917969 182.410156 49.886719 184.746094 45.5 184.746094 L 25.769531 184.746094 Z M 46.183594 223.660156 L 25.769531 223.660156 L 25.769531 201.191406 L 46.183594 201.191406 C 53.863281 201.191406 59.890625 204.0625 59.890625 212.695312 C 59.890625 220.78125 54.269531 223.660156 46.183594 223.660156 Z M 253.128906 206.53125 L 219.140625 146.238281 L 192.96875 146.238281 L 192.96875 244.078125 L 216.953125 244.078125 L 216.953125 183.097656 L 217.222656 183.097656 L 251.207031 244.078125 L 277.375 244.078125 L 277.375 146.238281 L 253.398438 146.238281 L 253.398438 206.53125 Z M 48.128906 257.167969 C 47.320312 257.167969 46.664062 257.824219 46.664062 258.632812 L 46.664062 293.84375 C 46.664062 294.652344 47.320312 295.308594 48.128906 295.308594 L 69.394531 295.308594 C 70.203125 295.308594 70.859375 294.652344 70.859375 293.84375 L 70.859375 258.632812 C 70.859375 257.824219 70.203125 257.167969 69.394531 257.167969 Z M 69.398438 134.664062 C 70.203125 134.664062 70.859375 134.011719 70.863281 133.203125 L 70.863281 97.992188 C 70.863281 97.183594 70.207031 96.527344 69.398438 96.527344 L 48.128906 96.527344 C 47.738281 96.527344 47.367188 96.679688 47.09375 96.953125 C 46.816406 97.230469 46.664062 97.601562 46.664062 97.992188 L 46.664062 133.203125 C 46.664062 134.007812 47.320312 134.664062 48.128906 134.664062 Z M 23.015625 134.664062 C 23.820312 134.664062 24.476562 134.011719 24.480469 133.203125 L 24.480469 97.992188 C 24.480469 97.601562 24.324219 97.230469 24.050781 96.953125 C 23.777344 96.679688 23.402344 96.527344 23.015625 96.527344 L 1.746094 96.527344 C 1.355469 96.523438 0.984375 96.679688 0.707031 96.953125 C 0.433594 97.230469 0.28125 97.601562 0.28125 97.992188 L 0.28125 133.203125 C 0.28125 134.007812 0.933594 134.664062 1.746094 134.664062 Z M 1.746094 257.167969 C 1.355469 257.167969 0.984375 257.320312 0.710938 257.597656 C 0.433594 257.871094 0.28125 258.242188 0.28125 258.632812 L 0.28125 293.84375 C 0.28125 294.652344 0.933594 295.308594 1.746094 295.308594 L 23.011719 295.308594 C 23.820312 295.308594 24.476562 294.652344 24.476562 293.84375 L 24.476562 258.632812 C 24.476562 258.242188 24.324219 257.871094 24.046875 257.597656 C 23.773438 257.320312 23.402344 257.167969 23.011719 257.167969 Z M 1.746094 257.167969 "/>
  </g>
</svg>

<svg xmlns="http://www.w3.org/2000/svg" viewBox="0 0 384 384"><path d="M314.004 244.078l20.008-32.61 18.36 32.61h30.972l-34.535-51.39 31.656-46.45H351.41l-17.398 30.418-16.446-30.418H287.56l31.925 46.45-34.804 51.39zm-164.734-97.84h-25.903l-36.582 97.84h26.172l6.168-17.539h34.121l6.027 17.54h26.586zm-24.254 61.387l11.101-34.254h.278l10.816 34.254zm-56.493-17.129c7.672-3.836 12.88-10.957 12.88-19.73 0-20.418-18.497-24.801-35.352-24.528H.28v97.84h47c20.969 0 38.094-7.129 38.094-30.422 0-11.097-6.438-20.14-16.852-23.16zM25.77 165.973H45.5c5.348 0 10.418 2.324 10.418 9.453 0 6.984-6.031 9.32-10.418 9.32H25.77zm20.414 57.687H25.77v-22.469h20.414c7.68 0 13.707 2.871 13.707 11.504 0 8.086-5.621 10.965-13.707 10.965zm206.945-17.129l-33.988-60.293h-26.172v97.84h23.984v-60.98h.27l33.984 60.98h26.168v-97.84h-23.977v60.293zm-205 50.637c-.809 0-1.465.656-1.465 1.465v35.21c0 .81.656 1.466 1.465 1.466h21.266c.808 0 1.464-.657 1.464-1.465v-35.211c0-.809-.656-1.465-1.464-1.465zm21.27-122.504c.804 0 1.46-.652 1.464-1.46V97.991c0-.808-.656-1.465-1.465-1.465h-21.27a1.46 1.46 0 00-1.464 1.465v35.211c0 .805.656 1.461 1.465 1.461zm-46.383 0c.804 0 1.46-.652 1.464-1.46V97.991c0-.39-.156-.762-.43-1.039a1.466 1.466 0 00-1.034-.426H1.746a1.46 1.46 0 00-1.039.426 1.476 1.476 0 00-.426 1.04v35.21c0 .805.653 1.461 1.465 1.461zM1.746 257.168c-.39 0-.762.152-1.035.43-.277.273-.43.644-.43 1.035v35.21c0 .81.653 1.466 1.465 1.466h21.266c.808 0 1.465-.657 1.465-1.465v-35.211c0-.39-.153-.762-.43-1.035a1.447 1.447 0 00-1.035-.43zm0 0"/></svg>
